public/Clip path group (2).svg

<svg width="651" height="576" viewBox="0 0 651 576" fill="none" xmlns="http://www.w3.org/2000/svg">
<g opacity="0.7" filter="url(#filter0_n_919_4868)">
<mask id="mask0_919_4868" style="mask-type:luminance" maskUnits="userSpaceOnUse" x="-141" y="-216" width="793" height="792">
<path d="M-140.001 200.099L265.798 -216L651.004 159.671L245.206 575.77L-140.001 200.099Z" fill="white"/>
</mask>
<g mask="url(#mask0_919_4868)">
<path d="M129.388 -76.4829C134.262 -81.4811 139.954 -85.2626 146.414 -87.7486C173.085 -98.0129 186.974 -98.3574 221.888 -80.5375C253.303 -64.5042 283.505 -34.5923 304.752 1.52822C323.15 32.8024 333.35 65.0037 341.469 92.7316C342.236 95.3543 343.002 97.9817 343.769 100.616C351.689 127.79 359.878 155.886 371.678 182.293C380.654 202.381 409.847 227.389 431.48 238.141C459.939 252.285 491.602 250.001 506.81 232.711C516.781 221.359 520.086 203.566 515.879 183.893C510.348 158.032 482.672 121.687 457.696 97.1371C455.933 95.4037 454.132 93.6687 452.319 91.9253C439.042 79.1364 422.515 63.2213 414.795 42.5824C407.925 24.2229 410.87 7.00406 420.931 -3.31606C425.899 -8.40994 432.602 -11.8222 440.72 -12.8616C465.273 -16.007 497.576 3.23793 512.726 30.0378C519.384 41.8213 516.531 53.4582 506.348 56.0262C496.164 58.5956 482.507 51.1239 475.847 39.3418C473.049 34.3943 465.581 29.9442 461.048 30.5234C456.515 31.1058 453.828 36.8547 455.722 41.9193C458.309 48.8396 467.17 57.3731 476.553 66.4072C478.549 68.3294 480.532 70.2411 482.472 72.1474C513.794 102.934 550.338 150.212 558.969 190.575C565.542 221.306 560.177 249.329 544.252 267.46C532.177 281.227 514.294 289.319 492.558 290.883C470.825 292.45 447.367 287.329 424.725 276.076C408.01 267.768 389.17 254.473 373.032 239.598C359.773 227.378 341.915 208.214 332.127 186.311C318.726 156.32 310.005 126.397 301.57 97.4577C300.809 94.8456 300.048 92.2369 299.286 89.6343C291.803 64.0665 283.254 36.9967 268.441 11.8134C253.908 -12.8913 234.254 -32.8408 214.522 -42.9113C194.24 -53.264 192.722 -53.3834 173.885 -46.1352C161.944 -41.5345 156.942 -27.1952 154.851 -15.9732C149.076 15.038 155.91 54.6636 174.094 95.6056C188.304 127.604 209.042 160.79 237.488 197.064C246.463 208.506 256.138 220.158 265.493 231.424C287.137 257.489 309.518 284.441 327.824 313.951C348.966 348.029 368.905 398.887 361.469 439.426C356.845 464.64 342.022 481.781 318.599 488.993C292.1 497.151 259.738 490.309 227.476 469.726C188.477 444.845 154.059 402.426 139.794 361.664C132.83 341.765 130.286 323.208 127.83 305.262C127.194 300.632 126.596 296.257 125.92 291.837C120.506 256.397 110.308 219.974 95.6111 183.583C80.6343 146.496 67.2034 121.403 50.3386 119.481C40.0559 118.312 34.7883 133.314 35.8048 147.889C36.7483 161.411 40.5204 176.113 44.5144 191.676C46.258 198.474 48.0621 205.505 49.6491 212.548C54.3924 233.604 59.3362 264.262 47.5534 287.303C41.5947 298.961 31.0356 307.399 17.8227 311.059C2.85979 315.205 -14.3921 312.822 -30.758 304.348C-42.7402 298.144 -50.7298 284.733 -48.6034 274.389C-46.4789 264.044 -35.0397 260.691 -23.0575 266.894C-11.2367 273.013 1.84582 267.061 6.65219 257.664C12.1324 246.944 12.1389 230.647 6.67042 206.378C5.2438 200.041 3.60914 193.67 1.87749 186.924C-2.4599 170.017 -6.94678 152.534 -8.16543 135.048C-9.45144 116.636 -5.14424 98.0368 5.91328 86.6946C13.628 78.784 24.6257 74.4051 39.3059 76.0774C56.9129 78.0847 82.9784 87.9706 107.153 123.68C120.737 143.741 129.924 166.49 136.003 181.543C152.244 221.762 163.517 262.022 169.502 301.204C170.231 305.965 170.88 310.714 171.51 315.306C173.748 331.646 175.863 347.081 181.126 362.117C190.651 389.338 214.481 418.748 240.423 435.3C253.745 443.797 273.678 452.682 292.987 446.735C306.79 442.486 315.188 432.69 317.953 417.622C322.315 393.838 312.257 357.711 292.328 325.585C276.553 300.159 256.699 276.249 235.677 250.933C226.002 239.281 215.999 227.233 206.4 214.996C174.412 174.207 150.891 136.429 134.488 99.4997C112.352 49.66 104.134 0.876198 111.35 -37.8652C114.427 -54.3896 120.559 -67.4295 129.388 -76.4829Z" fill="#FFC805"/>
</g>
</g>
<defs>
<filter id="filter0_n_919_4868" x="-48.946" y="-94.834" width="610.659" height="587.181" filterUnits="userSpaceOnUse" color-interpolation-filters="sRGB">
<feFlood flood-opacity="0" result="BackgroundImageFix"/>
<feBlend mode="normal" in="SourceGraphic" in2="BackgroundImageFix" result="shape"/>
<feTurbulence type="fractalNoise" baseFrequency="2 2" stitchTiles="stitch" numOctaves="3" result="noise" seed="4291" />
<feColorMatrix in="noise" type="luminanceToAlpha" result="alphaNoise" />
<feComponentTransfer in="alphaNoise" result="coloredNoise1">
<feFuncA type="discrete" tableValues="1 1 1 1 1 1 1 1 1 1 1 1 1 1 1 1 1 1 1 1 1 1 1 1 1 1 1 1 1 1 1 1 1 1 1 1 1 1 1 1 1 1 1 1 1 1 1 1 1 1 1 0 0 0 0 0 0 0 0 0 0 0 0 0 0 0 0 0 0 0 0 0 0 0 0 0 0 0 0 0 0 0 0 0 0 0 0 0 0 0 0 0 0 0 0 0 0 0 0 0 "/>
</feComponentTransfer>
<feComposite operator="in" in2="shape" in="coloredNoise1" result="noise1Clipped" />
<feFlood flood-color="rgba(0, 0, 0, 0.25)" result="color1Flood" />
<feComposite operator="in" in2="noise1Clipped" in="color1Flood" result="color1" />
<feMerge result="effect1_noise_919_4868">
<feMergeNode in="shape" />
<feMergeNode in="color1" />
</feMerge>
</filter>
</defs>
</svg>

<svg xmlns="http://www.w3.org/2000/svg" width="651" height="576" fill="none"><g filter="url(#a)" opacity=".7"><mask id="b" width="793" height="792" x="-141" y="-216" maskUnits="userSpaceOnUse" style="mask-type:luminance"><path fill="#fff" d="M-140.001 200.099 265.798-216l385.206 375.671L245.206 575.77z"/></mask><g mask="url(#b)"><path fill="#FFC805" d="M129.388-76.483c4.874-4.998 10.566-8.78 17.026-11.266 26.671-10.264 40.56-10.608 75.474 7.212 31.415 16.033 61.617 45.945 82.864 82.065 18.398 31.274 28.598 63.476 36.717 91.204q1.15 3.933 2.3 7.884c7.92 27.174 16.109 55.27 27.909 81.677 8.976 20.088 38.169 45.096 59.802 55.848 28.459 14.144 60.122 11.86 75.33-5.43 9.971-11.352 13.276-29.145 9.069-48.818-5.531-25.861-33.207-62.206-58.183-86.756a677 677 0 0 0-5.377-5.212c-13.277-12.789-29.804-28.704-37.524-49.343-6.87-18.36-3.925-35.578 6.136-45.898 4.968-5.094 11.671-8.506 19.789-9.546 24.553-3.145 56.856 16.1 72.006 42.9 6.658 11.783 3.805 23.42-6.378 25.988-10.184 2.57-23.841-4.902-30.501-16.684-2.798-4.948-10.266-9.398-14.799-8.819-4.533.583-7.22 6.332-5.326 11.396 2.587 6.92 11.448 15.454 20.831 24.488a822 822 0 0 1 5.919 5.74c31.322 30.787 67.866 78.065 76.497 118.428 6.573 30.731 1.208 58.754-14.717 76.885-12.075 13.767-29.958 21.859-51.694 23.423-21.733 1.567-45.191-3.554-67.833-14.807-16.715-8.308-35.555-21.603-51.693-36.478-13.259-12.22-31.117-31.384-40.905-53.287-13.401-29.991-22.122-59.914-30.557-88.853q-1.141-3.919-2.284-7.824c-7.483-25.567-16.032-52.637-30.845-77.82-14.533-24.705-34.187-44.655-53.919-54.725-20.282-10.353-21.8-10.472-40.637-3.224-11.941 4.6-16.943 18.94-19.034 30.162-5.775 31.011 1.059 70.637 19.243 111.579 14.21 31.998 34.948 65.184 63.394 101.458 8.975 11.442 18.65 23.094 28.005 34.36 21.644 26.065 44.025 53.017 62.331 82.527 21.142 34.078 41.081 84.936 33.645 125.475-4.624 25.214-19.447 42.355-42.87 49.567-26.499 8.158-58.861 1.316-91.123-19.267-38.999-24.881-73.417-67.3-87.682-108.062-6.964-19.899-9.508-38.456-11.964-56.402-.636-4.63-1.234-9.005-1.91-13.425-5.414-35.44-15.612-71.863-30.309-108.254-14.977-37.087-28.408-62.18-45.272-64.102-10.283-1.169-15.55 13.833-14.534 28.408.943 13.522 4.715 28.224 8.71 43.787 1.743 6.798 3.547 13.829 5.134 20.872 4.743 21.056 9.687 51.714-2.096 74.755-5.958 11.658-16.517 20.096-29.73 23.756-14.963 4.146-32.215 1.763-48.581-6.711-11.982-6.204-19.972-19.615-17.845-29.959 2.124-10.345 13.563-13.698 25.546-7.495 11.82 6.119 24.903.167 29.71-9.23 5.48-10.72 5.486-27.017.017-51.286-1.426-6.337-3.06-12.708-4.793-19.454-4.337-16.907-8.824-34.39-10.042-51.876-1.286-18.412 3.02-37.011 14.078-48.353 7.715-7.911 18.713-12.29 33.393-10.618 17.607 2.008 43.672 11.894 67.847 47.603 13.584 20.061 22.771 42.81 28.85 57.863 16.241 40.219 27.514 80.479 33.499 119.661.729 4.761 1.378 9.51 2.008 14.102 2.238 16.34 4.353 31.775 9.616 46.811 9.525 27.221 33.355 56.631 59.297 73.183 13.322 8.497 33.255 17.382 52.564 11.435 13.803-4.249 22.201-14.045 24.966-29.113 4.362-23.784-5.696-59.911-25.625-92.037-15.775-25.426-35.629-49.336-56.651-74.652-9.675-11.652-19.678-23.7-29.277-35.937-31.988-40.789-55.509-78.567-71.912-115.496C112.352 49.66 104.134.876 111.35-37.865c3.077-16.525 9.209-29.565 18.038-38.618"/></g></g><defs><filter id="a" width="610.659" height="587.181" x="-48.946" y="-94.834" color-interpolation-filters="sRGB" filterUnits="userSpaceOnUse"><feFlood flood-opacity="0" result="BackgroundImageFix"/><feBlend in="SourceGraphic" in2="BackgroundImageFix" result="shape"/><feTurbulence baseFrequency="2 2" numOctaves="3" result="noise" seed="4291" stitchTiles="stitch" type="fractalNoise"/><feColorMatrix in="noise" result="alphaNoise" type="luminanceToAlpha"/><feComponentTransfer in="alphaNoise" result="coloredNoise1"><feFuncA tableValues="1 1 1 1 1 1 1 1 1 1 1 1 1 1 1 1 1 1 1 1 1 1 1 1 1 1 1 1 1 1 1 1 1 1 1 1 1 1 1 1 1 1 1 1 1 1 1 1 1 1 1 0 0 0 0 0 0 0 0 0 0 0 0 0 0 0 0 0 0 0 0 0 0 0 0 0 0 0 0 0 0 0 0 0 0 0 0 0 0 0 0 0 0 0 0 0 0 0 0 0" type="discrete"/></feComponentTransfer><feComposite in="coloredNoise1" in2="shape" operator="in" result="noise1Clipped"/><feFlood flood-color="rgba(0, 0, 0, 0.25)" result="color1Flood"/><feComposite in="color1Flood" in2="noise1Clipped" operator="in" result="color1"/><feMerge result="effect1_noise_919_4868"><feMergeNode in="shape"/><feMergeNode in="color1"/></feMerge></filter></defs></svg>
